usr/share/icons/biglinux-icons-material/24/actions/irc-unvoice.svg

<svg xmlns="http://www.w3.org/2000/svg" viewBox="0 0 24 24">
  <defs id="defs3051">
    <style type="text/css" id="current-color-scheme">
      .ColorScheme-NegativeText {
        color:#da4453;
      }
      </style>
  </defs>
  <path
     style="fill:currentColor;fill-opacity:1;stroke:none" 
     d="M 16 5 L 4 8.4179688 L 4 9.4609375 L 4 14 L 4 14.582031 L 5 14.867188 L 5 17 L 5 17.300781 L 11 19 L 11 18 L 11 16.576172 L 16 18 L 16 16.957031 L 16 6.0429688 L 16 5 z M 15 6.328125 L 15 16.671875 L 5 13.824219 L 5 9.1757812 L 15 6.328125 z M 3 8.703125 L 2 8.9882812 L 2 9 L 2 10 L 2 13 L 2 14 L 2 14.011719 L 3 14.296875 L 3 14 L 3 13.253906 L 3 9.7460938 L 3 9 L 3 8.703125 z M 17 11 L 17 13 L 22 13 L 22 11 L 17 11 z M 6 15.152344 L 10 16.291016 L 10 17.716797 L 6 16.583984 L 6 15.152344 z "
     class="ColorScheme-NegativeText"
     />
</svg>

<svg xmlns="http://www.w3.org/2000/svg" viewBox="0 0 24 24"><path d="M16 5 4 8.418v6.164l1 .285V17.3l6 1.7v-2.424L16 18V5zm-1 1.328v10.344L5 13.824V9.176l10-2.848zM3 8.703l-1 .285v5.024l1 .285V8.703zM17 11v2h5v-2h-5zM6 15.152l4 1.139v1.426l-4-1.133v-1.432z" style="fill:currentColor;fill-opacity:1;stroke:none;color:#da4453"/></svg>
